X:1805
T:Bourr\'ee
R:Bourr\'ee
O:France
M:C|
K:D
A>A AB G2DG|FE FG A/2G/2A/2B/2 AF/2G/2|\
A>A AB G2 DG|1FE GFD2:|\
|:G/2F/2|DE FG A/2G/2A/2B/2 Ad|\
cd ed A/2B/2A/2G/2 AG/2F/2|\
EE FG A/2G/2A/2B/2 AF/2A/2|\
GE GF D2:|


